; Phase 6 Demo - Sequential Job 2: Circular Pocket
; Generated by PB-Touch Phase 6 Conversational  
; Operation: circular_pocket
; Created: 2024-12-20

G54 ; Work coordinate system
G21 ; Millimeters
G17 ; XY plane
G90 ; Absolute positioning
G94 ; Feed per minute mode

; Tool: T3 6mm End Mill
T3 M6 ; Tool change
G43 H3 ; Tool length compensation
M3 S2000 ; Spindle CW 2000 RPM
M8 ; Coolant on

; Circular pocket parameters:
; Center: X0 Y0
; Diameter: 20mm
; Depth: 5mm total (1mm per pass)
; Step over: 4.8mm (80% of tool diameter)

G0 Z5.0 ; Rapid to clearance height
G0 X0 Y0 ; Rapid to pocket center

; Pass 1: Z-1mm
G1 Z-1.0 F100 ; Feed to first depth
; Center out spiral
G1 X2.4 F300 ; Move to first radius
G3 X2.4 Y0 I-2.4 J0 F300 ; Full circle at 2.4mm radius
G1 X4.8 ; Step out
G3 X4.8 Y0 I-4.8 J0 ; Full circle at 4.8mm radius
G1 X7.2 ; Step out  
G3 X7.2 Y0 I-7.2 J0 ; Full circle at 7.2mm radius
G1 X10.0 ; Step out to final radius
G3 X10.0 Y0 I-10.0 J0 ; Full circle at final radius
G1 X0 ; Return to center

; Pass 2: Z-2mm
G1 Z-2.0 F100 ; Feed to second depth
G1 X2.4 F300 ; Move to first radius
G3 X2.4 Y0 I-2.4 J0 F300 ; Full circle
G1 X4.8 ; Step out
G3 X4.8 Y0 I-4.8 J0 ; Full circle
G1 X7.2 ; Step out
G3 X7.2 Y0 I-7.2 J0 ; Full circle
G1 X10.0 ; Step out
G3 X10.0 Y0 I-10.0 J0 ; Full circle
G1 X0 ; Return to center

; Pass 3: Z-3mm
G1 Z-3.0 F100
G1 X2.4 F300
G3 X2.4 Y0 I-2.4 J0 F300
G1 X4.8
G3 X4.8 Y0 I-4.8 J0
G1 X7.2
G3 X7.2 Y0 I-7.2 J0
G1 X10.0
G3 X10.0 Y0 I-10.0 J0
G1 X0

; Pass 4: Z-4mm
G1 Z-4.0 F100
G1 X2.4 F300
G3 X2.4 Y0 I-2.4 J0 F300
G1 X4.8
G3 X4.8 Y0 I-4.8 J0
G1 X7.2
G3 X7.2 Y0 I-7.2 J0
G1 X10.0
G3 X10.0 Y0 I-10.0 J0
G1 X0

; Pass 5: Z-5mm (final depth)
G1 Z-5.0 F100
G1 X2.4 F300
G3 X2.4 Y0 I-2.4 J0 F300
G1 X4.8
G3 X4.8 Y0 I-4.8 J0
G1 X7.2
G3 X7.2 Y0 I-7.2 J0
G1 X10.0
G3 X10.0 Y0 I-10.0 J0
G1 X0

; Cleanup
M9 ; Coolant off
M5 ; Spindle stop
G0 Z5.0 ; Rapid to safe height
G0 X0 Y0 ; Return to origin
M30 ; Program end