; Phase 6 Demo - Sequential Job 1: Facing Operation
; Generated by PB-Touch Phase 6 Conversational
; Operation: facing
; Created: 2024-12-20

G54 ; Work coordinate system
G20 ; Inches
G17 ; XY plane
G90 ; Absolute positioning
G94 ; Feed per minute mode

; Tool: T1 1/2" End Mill
T1 M6 ; Tool change
G43 H1 ; Tool length compensation
M3 S1200 ; Spindle CW 1200 RPM
M8 ; Coolant on

; Facing operation parameters:
; X: -1.0 to 1.0 inches
; Y: 1.0 to -1.0 inches  
; Step over: 0.4 inches
; Step down: 0.05 inches per pass

G0 Z0.1 ; Rapid to clearance height
G0 X-1.0 Y1.0 ; Rapid to start position

; Pass 1
G1 Z-0.05 F10 ; Feed to cutting depth
G1 X1.0 F50 ; Face across
G0 Z0.1 ; Rapid to clearance
G0 Y0.6 ; Step over
G1 Z-0.05 F10 ; Feed to cutting depth
G1 X-1.0 F50 ; Face back

; Pass 2
G0 Z0.1 ; Rapid to clearance
G0 Y0.2 ; Step over
G1 Z-0.05 F10 ; Feed to cutting depth
G1 X1.0 F50 ; Face across

; Pass 3
G0 Z0.1 ; Rapid to clearance
G0 Y-0.2 ; Step over
G1 Z-0.05 F10 ; Feed to cutting depth
G1 X-1.0 F50 ; Face back

; Pass 4
G0 Z0.1 ; Rapid to clearance
G0 Y-0.6 ; Step over
G1 Z-0.05 F10 ; Feed to cutting depth
G1 X1.0 F50 ; Face across

; Pass 5 (final)
G0 Z0.1 ; Rapid to clearance
G0 Y-1.0 ; Step over
G1 Z-0.05 F10 ; Feed to cutting depth
G1 X-1.0 F50 ; Face back

; Cleanup
G0 Z0.1 ; Rapid to clearance
M9 ; Coolant off
M5 ; Spindle stop
G0 Z1.0 ; Rapid to safe height
G0 X0 Y0 ; Return to origin
M30 ; Program end