; Phase 6 Demo - Sequential Job 3: Bolt Circle Drilling
; Generated by PB-Touch Phase 6 Conversational
; Operation: bolt_circle  
; Created: 2024-12-20

G54 ; Work coordinate system
G20 ; Inches
G17 ; XY plane
G90 ; Absolute positioning
G94 ; Feed per minute mode

; Tool: T2 #7 Drill (0.201")
T2 M6 ; Tool change
G43 H2 ; Tool length compensation
M3 S800 ; Spindle CW 800 RPM
M8 ; Coolant on

; Bolt circle parameters:
; Center: X0 Y0
; Circle diameter: 2.0 inches
; Hole count: 6 holes
; Start angle: 0 degrees
; Hole depth: 0.25 inches

G0 Z0.1 ; Rapid to clearance height

; Calculate hole positions for 6 holes on 2" diameter circle
; Hole 1: 0 degrees
G0 X1.0 Y0 ; Rapid to hole 1 (radius = 1.0")
G81 Z-0.25 R0.1 F5 ; Drill cycle: depth -0.25", retract 0.1", feed 5 IPM

; Hole 2: 60 degrees  
G0 X0.5 Y0.866 ; Rapid to hole 2
G81 Z-0.25 R0.1 F5 ; Drill cycle

; Hole 3: 120 degrees
G0 X-0.5 Y0.866 ; Rapid to hole 3  
G81 Z-0.25 R0.1 F5 ; Drill cycle

; Hole 4: 180 degrees
G0 X-1.0 Y0 ; Rapid to hole 4
G81 Z-0.25 R0.1 F5 ; Drill cycle

; Hole 5: 240 degrees
G0 X-0.5 Y-0.866 ; Rapid to hole 5
G81 Z-0.25 R0.1 F5 ; Drill cycle

; Hole 6: 300 degrees
G0 X0.5 Y-0.866 ; Rapid to hole 6
G81 Z-0.25 R0.1 F5 ; Drill cycle

G80 ; Cancel drill cycle

; Optional: Center hole
G0 X0 Y0 ; Rapid to center
G81 Z-0.25 R0.1 F5 ; Drill center hole
G80 ; Cancel drill cycle

; Cleanup
M9 ; Coolant off
M5 ; Spindle stop
G0 Z1.0 ; Rapid to safe height
G0 X0 Y0 ; Return to origin
M30 ; Program end